icons/hubot-24.svg

<svg width="24" height="24" viewBox="0 0 24 24" fill="none" xmlns="http://www.w3.org/2000/svg">
<path d="M0 13C0 6.37258 5.37258 1 12 1C18.6274 1 24 6.37258 24 13V21.657C24 22.0712 23.6642 22.407 23.25 22.407C22.8358 22.407 22.5 22.0712 22.5 21.657V13C22.5 7.20101 17.799 2.5 12 2.5C6.20101 2.5 1.5 7.20101 1.5 13V21.657C1.5 22.0712 1.16421 22.407 0.75 22.407C0.335786 22.407 0 22.0712 0 21.657V13Z" fill="#24292E"/>
<path d="M8 19.75C8 19.3358 8.33579 19 8.75 19H15.25C15.6642 19 16 19.3358 16 19.75C16 20.1642 15.6642 20.5 15.25 20.5H8.75C8.33579 20.5 8 20.1642 8 19.75Z" fill="#24292E"/>
<path fill-rule="evenodd" clip-rule="evenodd" d="M5.25 9.5C4.2835 9.5 3.5 10.2835 3.5 11.25V14.75C3.5 15.7165 4.2835 16.5 5.25 16.5H18.75C19.7165 16.5 20.5 15.7165 20.5 14.75V11.25C20.5 10.2835 19.7165 9.5 18.75 9.5H5.25ZM5.46967 10.9697C5.76256 10.6768 6.23744 10.6768 6.53033 10.9697L9 13.4393L11.4697 10.9697C11.7626 10.6768 12.2374 10.6768 12.5303 10.9697L15 13.4393L17.4697 10.9697C17.7626 10.6768 18.2374 10.6768 18.5303 10.9697C18.8232 11.2626 18.8232 11.7374 18.5303 12.0303L15.5303 15.0303C15.2374 15.3232 14.7626 15.3232 14.4697 15.0303L12 12.5607L9.53033 15.0303C9.23744 15.3232 8.76256 15.3232 8.46967 15.0303L5.46967 12.0303C5.17678 11.7374 5.17678 11.2626 5.46967 10.9697Z" fill="#24292E"/>
</svg>

<svg xmlns="http://www.w3.org/2000/svg" width="24" height="24" viewBox="0 0 24 24"><path d="M0 13C0 6.373 5.373 1 12 1s12 5.373 12 12v8.657a.75.75 0 01-1.5 0V13c0-5.799-4.701-10.5-10.5-10.5S1.5 7.201 1.5 13v8.657a.75.75 0 01-1.5 0V13z"/><path d="M8 19.75a.75.75 0 01.75-.75h6.5a.75.75 0 010 1.5h-6.5a.75.75 0 01-.75-.75z"/><path fill-rule="evenodd" d="M5.25 9.5a1.75 1.75 0 00-1.75 1.75v3.5c0 .966.784 1.75 1.75 1.75h13.5a1.75 1.75 0 001.75-1.75v-3.5a1.75 1.75 0 00-1.75-1.75H5.25zm.22 1.47a.75.75 0 011.06 0L9 13.44l2.47-2.47a.75.75 0 011.06 0L15 13.44l2.47-2.47a.75.75 0 111.06 1.06l-3 3a.75.75 0 01-1.06 0L12 12.56l-2.47 2.47a.75.75 0 01-1.06 0l-3-3a.75.75 0 010-1.06z"/></svg>
